X:1
T:Christian Brother, o’er the Main
T:Christian Brother, o’er the Main
T:William Howard Doane
T:Frances Jane (Fanny) Crosby, 1891
T:Public Domain Courtesy of the Cyber Hymnal™
C:William Howard Doane
Z:Public Domain
Z:Courtesy of the Cyber Hymnal™
%%score ( 1 2 ) ( 3 4 )
L:1/8
Q:1/4=110
M:6/8
K:Bb
V:1 treble 
V:2 treble 
V:3 bass 
V:4 bass 
V:1
 [Fd]2 [=E^c] [Fd]2 [FB] | [GB]2 [EG] [EG]3 | [FA][FA][FA] [FA]2 [FB] | [Fc]3 F3 | %4
w: 1.~Christ- ian bro- ther|o’er the main|Car- ry the news of|Je- sus;|
w: 2.~On- ward quick- ly,|hear their cry|O- ver the deep re-|sound- ing;|
w: 3.~Tell of Ju- dah’s|Morn- ing Star,|Peace- ful- ly, calm- ly|shin- ing;|
w: 4.~Christ- ian breth- ren,|preach the Word,|Pub- lish a free sal-|va- tion;|
 [Fd]2 [=E^c] [Fd]2 [FB] | [GB]2 [EG] !fermata![GB]3 | [FA][Ac][GB] [FA]2 [=EG] | F3- F2 z || %8
w: Go where night and|dark- ness reign|Lov- ing- ly haste a-|way. *|
w: Save the mill- ions|ere they die,|Ear- nest- ly haste a-|way. *|
w: Spread its beams o’er|climes a- far,|Pray’r- ful- ly haste a-|way. *|
w: Lo, in heav’n your|bright re- ward;|Joy- ful- ly haste a-|way. *|
"^Refrain" [DF][^C=E][DF] [Fd]2 [Fd] | [Ge]2 [Fd] [Fd]3 | [Fc][F=B][Fc] [Fd]2 [Ec] | %11
w: |||
w: Car- ry the news o’er|wa- ters blue,|Per- ish- ing souls are|
w: |||
w: |||
 [Ec][EB][EG] [DF]3 | [EG][E^F][EG] [GB]2 [Gc] | [^Fd]2 [Gd] !fermata![Fd]3 | %14
w: |||
w: wait- ing for you;|Stretch- ing their hands, they|plead for light,|
w: |||
w: |||
 [Gc]2 [GB] [FB]2 [EA] | [DB]6 |] %16
w: ||
w: Bless- èd Gos- pel|light.|
w: ||
w: ||
V:2
 x6 | x6 | x6 | x3 F3 | x6 | x6 | x6 | F3- F2 x || x6 | x6 | x6 | x6 | x6 | x6 | x6 | x6 |] %16
V:3
 [B,,B,]2 [B,,B,] [B,,B,]2 [D,B,] | [E,E]2 [E,B,] [B,,B,]3 | [F,C][F,C][F,C] [F,C]2 [F,D] | %3
 [F,E]3 [F,A,]3 | [B,,B,]2 [B,,B,] [B,,B,]2 [D,B,] | [E,E]2 [E,B,] !fermata![E,B,]3 | %6
 [C,C][C,C][C,C] [C,C]2 [C,B,] | [F,A,]3- [F,A,]2 z || [B,,B,][B,,B,][B,,B,] [B,,B,]2 [B,,B,] | %9
 [B,,B,]2 [B,,B,] [B,,B,]3 | [F,A,][F,^G,][F,A,] [F,B,]2 [F,A,] | [B,,F,][B,,G,][B,,B,] [B,,B,]3 | %12
 [E,B,][E,A,][E,B,] (EB,)[E,A,] | [D,A,]2 [D,A,] !fermata![D,A,]3 | [E,C]2 [=E,^C] [F,D]2 [F,=C] | %15
 [B,,B,]6 |] %16
V:4
 x6 | x6 | x6 | x6 | x6 | x6 | x6 | x6 || x6 | x6 | x6 | x6 | x3 E,2 x | x6 | x6 | x6 |] %16

